X:1
T:Bay Ridge, 77.77
T:Bay Ridge, 77.77
T:Frank Elbert Applegate Stoney, 1908
T:Public Domain Courtesy of the Cyber Hymnal™
C:Frank Elbert Applegate Stoney, 1908
Z:Public Domain
Z:Courtesy of the Cyber Hymnal™
%%score ( 1 2 ) ( 3 4 )
L:1/8
Q:1/4=107
M:4/4
K:Eb
V:1 treble 
V:2 treble 
V:3 bass 
V:4 bass 
V:1
 [EG]2 F2 [EA]2 [EG]2 | [Ec]2 c2 [GB]4 | [FA]2 [DB]2 [EG]2 [Ge]2 | [E=A]2 c2 [DB]4 | %4
 [EG]2 F2 [EA]2 [EG]2 | [EF]2 A2 [DG]4 | [FA]2 [Ac]2 [GB]2 [Fe]2 | [EG]2 F2 E4 |] %8
V:2
 x2 F2 x4 | x2 (EF) x4 | x8 | x2 (EF) x4 | x2 F2 x4 | x2 (FE) x4 | x8 | x2 (ED) E4 |] %8
V:3
 [E,B,]2 [D,B,]2 [C,A,]2 [B,,B,]2 | [A,,C]2 (CD) [E,E]4 | [D,B,]2 [B,,B,]2 [E,B,]2 [C,C]2 | %3
 [F,C]2 (G,=A,) [B,,B,]4 | [E,B,]2 D,2 [C,A,]2 [B,,B,]2 | [A,,C]2 (DC) [G,,=B,]4 | %6
 [F,,F,C]2 [F,D]2 [G,E]2 [A,C]2 | B,2 (B,A,) [E,G,]4 |] %8
V:4
 x8 | x2 A,,2 x4 | x8 | x2 F,,2 x4 | x8 | x2 F,,2 x4 | x8 | B,2 B,,2 x4 |] %8

